!!!ONB: MCCC : ICD0048_00 : Extracted Monophonic Melody
!!!COM: Debussy, Claude
!!!OTL: Mazurka
!!!SCT: CD 75 ; L.67
!!!ODT: 1890///
**kern
*staff1
*clefG2
*k[f#c#g#]
*A:
*M3/4
8g#
8a
4g#
=4
4r
12f#
12g#
12a
12cc#
12a
12f#
=5
4r
8g#
8b
8g#
8a
=6
12g#
12f#
12e
8d
8e
4f#
=7
4r
8g#
8a
4g#
=8
4r
12f#
12g#
12a
12cc#
12a
12f#
=9
4r
8g#
8b
8g#
8a
=10
12g#
12f#
12e
4f#
4r
=11
4r
8.c#
16f#
4B
=12
4r
8.c#
16f#
4c
=13
4r
8.c#
16aa
4cc#[
=14
8.cc#]
16aa
8.cc#
16aa
4cc#
=15
4r
8.c#
16f#
4B
=16
4r
8.c#
16f#
4c
=17
4r
8.c#
16aa
4cc#[
=18
8.cc#]
16aa
8.cc#
16aa
4cc#
=19
4r
4a
4g#[
=20
4g#]
4f#
4ff#
=21
4.ee[
16ee]
16cc#
8.a
16b
=22
8.cc#
16ee
8.cc#
16a
4cc#
=23
4r
4a
4g#[
=24
4g#]
4f#
4ff#
=25
4.ee[
16ee]
16cc#
8.a
16b
=26
8.cc#
16ee
8.cc#
16a
4cc#
=27
4r
8dd
8ee
8ff#
8dd
=28
4r
12cc#
12dd
12cc#
4b
=29
4r
12cc#
12dd
12cc#
4b
=30
4r
12b
12aa
12b
4a
=31
4r
8dd
8ee
8ff#
8dd
=32
4r
12cc#
12dd
12cc#
4b
=33
4r
12cc#
12dd
12cc#
4b
=34
4r
12b
12aa
12b
4a
=35
4r
8dd#
8ee#
8ff#
8ee#
=36
4r
12ee#
12ff#
12ee#
4dd#
=37
4r
12ee#
12ff#
12ee#
4dd#
=38
4r
12dd#
12ccc#
12dd#
4cc#
=39
4r
8dd#
8ee#
8ff#
8ee#
=40
4r
12ee#
12ff#
12ee#
4dd#
=41
4r
12ee#
12ff#
12ee#
4dd#
=42
4r
12dd#
12ccc#
12dd#
4cc#[
=43
8cc#]
8dd#
8ee#
8ff#
8gg
8gg#
=44
4r
12dd#
12ccc#
12dd#
4cc#
=45
8dd
8dd#
8ee
8ee#
8ff#
8gg
=46
4r
8gg#
8aa
4gg#
=47
4r
12ff#
12gg#
12aa
12ccc#
12aa
12ff#
=48
4r
8gg#
8bb
8gg#
8aa
=49
12gg#
12ff#
12ee
8dd
8ee
4ff#
=50
4r
8g#
8a
4g#[
=51
4g#]
12f#
12g#
12a
12cc#
12a
12f#
=52
4r
8g#
8b
8g#
8a
=53
12g#
12f#
12e
4f#
4r
=54
2.r
=55
4.A[
16A]
16B
8.d
16f#
=56
4ee
2aa
=57
4ee
4aa
8aa
8eee
=58
2.r
=59
4.A[
16A]
16B
8.d
16f#
=60
4ee
2aa
=61
4ee
4aa
8aa
8eee
=62
4r
4ee
4ff#
=63
4r
4ee
4aa
=64
4r
4gg
4aa
=65
4r
4gg
4ccc
=66
4r
4bb
4ccc#
=67
4r
4bb
4eee
=68
4r
4bb
4eee#
=69
4r
4bb
4eee
=70
2e
4r
=71
2.r
=72
4.A[
16A]
16B
8.d
16f#
=73
4ee
2aa
=74
4ee
4aa
8aa
8eee
=75
2.r
=76
4.c[
16c]
16d
8.e#
16a
=77
4gg
2ccc
=78
4gg
4ccc
8ccc
8ggg
=79
4r
4b
4dd#
=80
4r
4dd
4b
=81
4r
4b
4dd#
=82
4r
4cc##
4dd#
=83
4r
4ee
4b
=84
4r
4cc
4g
=85
4AA
4c#
4A#
=86
4AA
4A
4d
=87
4.aa[
16aa]
16gg
8.aa
16gg
=88
4.ee[
16ee]
16gg
8.ee
16gg
=89
8.aa
16bb
8.aa
16bb
8.aa
16gg
=90
2.ee
=91
2.dd
=92
2.dd
=93
4dd
2dd[
=94
2.dd]
=95
4.aa[
16aa]
16gg
8.aa
16gg
=96
4.ee[
16ee]
16gg
8.ee
16gg
=97
8.aa
16bb
8.aa
16bb
8.aa
16gg
=98
2.ee
=99
2.dd
=100
2.dd
=101
4dd
2dd[
=102
2.dd]
=103
4dd
2dd[
=104
2.dd]
=105
8.a
16e#
8.d
16e#
8.a
16b
=106
8.dd
16b
8.a
16b
8.dd
16ee#
=107
8.aa
16ee#
8.dd
16ee#
8.aa
16ee#
=108
8.dd
16ff#
8.aa
16ff#
8.dd
16ff#
=109
8.aa
16ee#
8.dd
16ee#
8.aa
16ee#
=110
8.dd
16ee#
8.aa
16ee#
8.dd
16ee#
=111
4r
8gg#
8aa
4gg#
=112
4r
12ff#
12gg#
12aa
12ccc#
12aa
12ff#
=113
4r
8gg#
8bb
8gg#
8aa
=114
12gg#
12ff#
12ee
8dd
8ee
4ff#
=115
4r
8gg#
8aa
4gg#
=116
4r
12ff#
12gg#
12aa
12ccc#
12aa
12ff#
=117
4r
8g#
8b
8g#
8a
=118
12g#
12f#
12e
4f#
4r
=119
2.r
=120
2.r
=121
4r
8gg#
8aa
4gg#
=122
4r
12ff#
12gg#
12aa
12ccc#
12aa
12ff#
=123
4r
8gg#
8bb
8gg#
8aa
=124
12gg#
12ff#
12ee
8dd
8ee
4ff#
=125
4r
8g#
8a
4g#
=126
4r
12f#
12g#
12a
12cc#
12a
12f#
=127
4r
8g#
8b
8g#
8a
=128
12g#
12f#
12e
8d
8e
4f#
=129
12G#
12F#
12E
8D
8E
4F#[
=130
2F#]
4f#
=131
12G#
12F#
12E
8D
8E
4F#[
=132
2F#]
4f#
=133
2.f#[
=134
2.f#]
=135
12G#
12F#
12E
12D
12E
12F#
12G#
12A
12B
=136
12c#
12d
12e
12f#
12g#
12a
16b
16cc#
16dd
16ee
=137
4ff#
4r
4ccc#
=138
4fff#
4ff#
4r
==
*-
